dist/svgs/crypto-icons/icons/xaur.svg

<?xml version="1.0" encoding="UTF-8" standalone="yes"?>
<svg xmlns="http://www.w3.org/2000/svg" xmlns:xlink="http://www.w3.org/1999/xlink" width="512px" height="426.66666666666663px" viewBox="0 0 384 320" version="1.1">
  <g id="surface1">
    <path style=" stroke:none;fill-rule:evenodd;fill:rgb(0%,0%,0%);fill-opacity:1;" d="M 289.199219 180.398438 L 289.199219 199.601562 L 328.398438 199.601562 L 328.398438 222 L 355.199219 222 L 355.199219 308.398438 L 384 308.398438 L 384 320 L 266.800781 320 L 266.800781 308.398438 L 316 308.398438 L 316 238.800781 L 289.199219 238.800781 L 289.199219 219.601562 L 250.398438 219.601562 L 250.398438 208 L 208.800781 208 C 210.398438 211.46875 212.132812 214.066406 214 215.800781 C 215.867188 217.53125 217.734375 218.800781 219.601562 219.601562 C 219.332031 219.332031 219.132812 218.933594 219 218.398438 C 218.867188 217.875 218.800781 217.339844 218.800781 216.800781 C 218.800781 214.933594 219.53125 213.332031 221 212 C 222.46875 210.667969 224.132812 210 226 210 C 227.867188 210 229.46875 210.667969 230.800781 212 C 232.132812 213.332031 232.800781 214.933594 232.800781 216.800781 C 232.800781 218.933594 232.132812 220.667969 230.800781 222 C 229.46875 223.332031 227.867188 224 226 224 L 225.199219 224 C 223.867188 224 220.933594 223.332031 216.398438 222 C 211.867188 220.667969 208 216.265625 204.800781 208.800781 L 189.601562 245.199219 C 189.601562 244.398438 187.601562 239.066406 183.601562 229.199219 C 179.601562 219.332031 176.800781 212.53125 175.199219 208.800781 C 172 216.265625 168.132812 220.667969 163.601562 222 C 159.066406 223.332031 156.132812 224 154.800781 224 L 154.398438 224 C 152.265625 224 150.53125 223.332031 149.199219 222 C 147.867188 220.667969 147.199219 218.933594 147.199219 216.800781 C 147.199219 214.933594 147.867188 213.332031 149.199219 212 C 150.53125 210.667969 152.265625 210 154.398438 210 C 156.265625 210 157.867188 210.667969 159.199219 212 C 160.53125 213.332031 161.199219 214.933594 161.199219 216.800781 L 161.199219 218.601562 L 160.800781 219.601562 C 162.398438 218.800781 164.199219 217.53125 166.199219 215.800781 C 168.199219 214.066406 170 211.46875 171.601562 208 L 132.398438 208 L 132.398438 219.601562 L 93.601562 219.601562 L 93.601562 238.800781 L 66.398438 238.800781 L 66.398438 308.398438 L 116 308.398438 L 116 320 L 0 320 L 0 308.398438 L 28.800781 308.398438 L 28.800781 222 L 55.601562 222 L 55.601562 199.601562 L 94.800781 199.601562 L 94.800781 180.398438 L 130.398438 180.398438 L 130.398438 170.398438 L 104.800781 159.199219 C 105.332031 159.199219 108.398438 158.199219 114 156.199219 C 119.601562 154.199219 125.066406 152 130.398438 149.601562 L 130.398438 139.601562 L 94.800781 139.601562 L 94.800781 120.398438 L 55.601562 120.398438 L 55.601562 98 L 28.800781 98 L 28.800781 11.601562 L 0 11.601562 L 0 0 L 117.199219 0 L 117.199219 11.601562 L 68 11.601562 L 68 81.199219 L 94.800781 81.199219 L 94.800781 100.398438 L 133.601562 100.398438 L 133.601562 112 L 172.800781 112 C 171.199219 108.265625 169.398438 105.46875 167.398438 103.601562 C 165.398438 101.734375 163.601562 100.53125 162 100 C 162.265625 100.265625 162.398438 100.667969 162.398438 101.199219 L 162.398438 102.398438 C 162.398438 104.265625 161.734375 105.933594 160.398438 107.398438 C 159.066406 108.867188 157.46875 109.601562 155.601562 109.601562 C 153.734375 109.601562 152.066406 108.867188 150.601562 107.398438 C 149.132812 105.933594 148.398438 104.265625 148.398438 102.398438 C 148.398438 100.53125 149.132812 98.867188 150.601562 97.398438 C 152.066406 95.933594 153.734375 95.199219 155.601562 95.199219 L 156 95.199219 C 157.332031 95.199219 160.199219 95.867188 164.601562 97.199219 C 169 98.53125 173.066406 102.800781 176.800781 110 L 191.199219 74.398438 C 191.199219 74.933594 193.332031 80.53125 197.601562 91.199219 C 201.867188 101.867188 204.53125 108.800781 205.601562 112 C 208.800781 104 212.667969 99.265625 217.199219 97.800781 C 221.734375 96.332031 224.800781 95.734375 226.398438 96 L 227.199219 96 C 229.066406 96 230.734375 96.667969 232.199219 98 C 233.667969 99.332031 234.398438 101.066406 234.398438 103.199219 C 234.398438 105.066406 233.667969 106.667969 232.199219 108 C 230.734375 109.332031 229.066406 110 227.199219 110 C 225.332031 110 223.667969 109.332031 222.199219 108 C 220.734375 106.667969 220 105.066406 220 103.199219 C 220 102.398438 220.066406 101.800781 220.199219 101.398438 C 220.332031 101 220.53125 100.667969 220.800781 100.398438 C 218.933594 101.199219 217.066406 102.46875 215.199219 104.199219 C 213.332031 105.933594 211.601562 108.800781 210 112.800781 L 251.601562 112.800781 L 251.601562 101.199219 L 290.398438 101.199219 L 290.398438 82 L 317.601562 82 L 317.601562 12 L 268 12 L 268 0 L 384 0 L 384 11.601562 L 355.199219 11.601562 L 355.199219 98 L 328.398438 98 L 328.398438 120.398438 L 289.199219 120.398438 L 289.199219 139.601562 L 251.601562 139.601562 L 251.601562 149.601562 L 276 160 C 275.46875 160 272.53125 161 267.199219 163 C 261.867188 165 256.667969 166.933594 251.601562 168.800781 L 251.601562 180 L 289.199219 180 Z M 243.199219 158.800781 L 240.800781 158.800781 L 239.601562 158.398438 C 238.800781 158.132812 238.667969 157.867188 239.199219 157.601562 C 238.699219 156.84375 238.164062 156.109375 237.601562 155.398438 L 236.800781 154.398438 L 236 155.398438 L 234.398438 157.601562 L 233.601562 158 L 224 158 C 229.066406 156.132812 232.265625 154.667969 233.601562 153.601562 C 234.933594 152.53125 235.601562 151.734375 235.601562 151.199219 L 235.601562 150.398438 C 232.398438 147.46875 230.398438 145.800781 229.601562 145.398438 C 228.800781 145 228.265625 144.800781 228 144.800781 C 227.46875 144.800781 227.199219 144.867188 227.199219 145 L 227.199219 145.199219 C 227.199219 147.066406 225.800781 149.199219 223 151.601562 C 220.199219 154 218 155.734375 216.398438 156.800781 L 208 148.398438 L 212.398438 136.800781 L 208.398438 138.800781 L 201.601562 142 L 192 132.398438 L 182.398438 142 L 170.800781 137.601562 L 172.601562 141.601562 L 176 148.398438 L 166.398438 158 C 164.800781 156.667969 162.601562 154.933594 159.800781 152.800781 C 157 150.667969 155.601562 148.53125 155.601562 146.398438 C 155.601562 146.132812 155.53125 146 155.398438 146 L 154.800781 146 L 153.398438 146.398438 C 152.46875 146.667969 150.398438 148.398438 147.199219 151.601562 L 147.199219 152.398438 C 147.199219 152.667969 147.867188 153.332031 149.199219 154.398438 C 150.53125 155.46875 153.734375 157.066406 158.800781 159.199219 L 149.199219 159.199219 L 148.800781 159 L 148.398438 158.800781 C 147.898438 158.042969 147.363281 157.308594 146.800781 156.601562 L 146 155.601562 L 145.199219 156.601562 L 143.199219 158.800781 L 142 160 L 139.601562 160 C 138 160.265625 136.734375 160.53125 135.800781 160.800781 L 134.398438 161.199219 L 135.800781 161.601562 L 139.601562 162.398438 L 142 162.398438 C 142.265625 162.398438 142.53125 162.53125 142.800781 162.800781 C 143.066406 163.066406 143.199219 163.46875 143.199219 164 C 144 164.53125 144.667969 165.199219 145.199219 166 L 146 167.199219 L 146.800781 166 L 148.398438 164 L 148.800781 163.601562 L 149.199219 163.199219 L 158.800781 163.199219 C 153.734375 165.066406 150.53125 166.53125 149.199219 167.601562 C 147.867188 168.667969 147.199219 169.601562 147.199219 170.398438 L 147.199219 170.800781 C 150.398438 173.734375 152.398438 175.46875 153.199219 176 C 154 176.53125 154.53125 176.800781 154.800781 176.800781 C 155.066406 176.800781 155.265625 176.667969 155.398438 176.398438 L 155.601562 176 C 155.601562 174.132812 157 172 159.800781 169.601562 C 162.601562 167.199219 164.800781 165.46875 166.398438 164.398438 L 174.800781 172.800781 C 173.734375 174.933594 172.667969 177.265625 171.601562 179.800781 C 170.53125 182.332031 169.867188 183.601562 169.601562 183.601562 L 181.199219 179.199219 L 190.800781 188.800781 L 200.800781 178.398438 L 207.199219 181.601562 L 210.398438 183.199219 L 206.800781 172.800781 L 215.199219 164.398438 C 216.800781 165.734375 219 167.53125 221.800781 169.800781 C 224.601562 172.066406 226 174.132812 226 176 L 226 176.601562 L 226.398438 176.800781 C 226.933594 176.800781 227.46875 176.601562 228 176.199219 C 228.53125 175.800781 230.667969 174 234.398438 170.800781 L 234.398438 170.398438 C 234.398438 169.867188 233.734375 169.066406 232.398438 168 C 231.066406 166.933594 227.867188 165.332031 222.800781 163.199219 L 232.398438 163.199219 L 232.601562 163.601562 L 232.800781 164 C 233.601562 164.53125 234.265625 165.199219 234.800781 166 L 235.601562 167.199219 L 236.398438 166 L 238 164 C 238.265625 163.46875 238.46875 163.199219 238.601562 163.199219 C 238.734375 163.199219 238.933594 162.933594 239.199219 162.398438 L 242 162.398438 C 243.601562 162.132812 244.867188 161.867188 245.800781 161.601562 L 247.199219 161.199219 L 246.199219 160.199219 Z M 243.199219 158.800781 "/>
  </g>
</svg>

<svg xmlns="http://www.w3.org/2000/svg" viewBox="0 0 384 320"><path fill-rule="evenodd" d="M289.2 180.398v19.204h39.198V222H355.2v86.398H384V320H266.8v-11.602H316v-69.597h-26.8v-19.2h-38.802V208h-41.597c1.597 3.469 3.332 6.066 5.199 7.8 1.867 1.731 3.734 3 5.602 3.802-.27-.27-.47-.668-.602-1.204a6.487 6.487 0 01-.2-1.597c0-1.867.731-3.469 2.2-4.801 1.469-1.332 3.133-2 5-2s3.469.668 4.8 2c1.333 1.332 2 2.934 2 4.8 0 2.134-.667 3.868-2 5.2-1.331 1.332-2.933 2-4.8 2h-.8c-1.333 0-4.266-.668-8.802-2-4.53-1.332-8.398-5.734-11.597-13.2l-15.2 36.4c0-.802-2-6.134-6-16-4-9.868-6.8-16.669-8.402-20.4-3.199 7.466-7.066 11.868-11.597 13.2-4.536 1.332-7.47 2-8.801 2h-.403c-2.132 0-3.867-.668-5.199-2-1.332-1.332-2-3.066-2-5.2 0-1.866.668-3.468 2-4.8 1.332-1.332 3.067-2 5.2-2 1.867 0 3.468.668 4.8 2 1.332 1.332 2 2.934 2 4.8v1.802l-.398 1c1.597-.801 3.398-2.07 5.398-3.801 2-1.735 3.801-4.332 5.403-7.801h-39.204v11.602H93.602V238.8H66.398v69.597H116V320H0v-11.602h28.8V222h26.802v-22.398H94.8v-19.204h35.597v-10L104.801 159.2c.531 0 3.597-1 9.199-3s11.066-4.199 16.398-6.597v-10H94.801v-19.204H55.6V98H28.8V11.602H0V0h117.2v11.602H68v69.597h26.8v19.2h38.802V112H172.8c-1.602-3.734-3.403-6.531-5.403-8.398-2-1.868-3.796-3.07-5.398-3.602.266.266.398.668.398 1.2v1.198c0 1.868-.664 3.536-2 5-1.332 1.47-2.93 2.204-4.796 2.204-1.868 0-3.536-.735-5-2.204-1.47-1.464-2.204-3.132-2.204-5 0-1.867.735-3.53 2.204-5 1.464-1.464 3.132-2.199 5-2.199H156c1.332 0 4.2.668 8.602 2C169 98.531 173.066 102.801 176.8 110l14.398-35.602c0 .536 2.133 6.133 6.403 16.801 4.265 10.668 6.93 17.602 8 20.801 3.199-8 7.066-12.734 11.597-14.2 4.535-1.468 7.602-2.066 9.2-1.8h.8c1.867 0 3.535.668 5 2 1.469 1.332 2.2 3.066 2.2 5.2 0 1.866-.731 3.468-2.2 4.8-1.465 1.332-3.133 2-5 2s-3.531-.668-5-2c-1.465-1.332-2.199-2.934-2.199-4.8 0-.802.066-1.4.2-1.802.132-.398.331-.73.6-1-1.866.801-3.734 2.07-5.6 3.801-1.868 1.735-3.598 4.602-5.2 8.602h41.602v-11.602h38.796V82h27.204V12H268V0h116v11.602h-28.8V98h-26.802v22.398H289.2v19.204h-37.597v10L276 160c-.531 0-3.469 1-8.8 3-5.333 2-10.532 3.934-15.598 5.8V180h37.597zm-46-21.597h-2.4l-1.198-.403c-.801-.265-.934-.53-.403-.796a31.619 31.619 0 00-1.597-2.204l-.801-1-.801 1-1.602 2.204-.796.398H224c5.066-1.867 8.266-3.332 9.602-4.398 1.332-1.07 2-1.868 2-2.403v-.8c-3.204-2.93-5.204-4.598-6-5-.801-.399-1.336-.598-1.602-.598-.531 0-.8.066-.8.199v.2c0 1.866-1.4 4-4.2 6.402-2.8 2.398-5 4.132-6.602 5.199L208 148.398l4.398-11.597-4 2-6.796 3.199-9.602-9.602-9.602 9.602-11.597-4.398 1.8 4 3.399 6.796-9.602 9.602c-1.597-1.332-3.796-3.066-6.597-5.2-2.801-2.132-4.2-4.269-4.2-6.402 0-.265-.07-.398-.203-.398h-.597l-1.403.398c-.93.27-3 2-6.199 5.204v.796c0 .27.668.934 2 2 1.332 1.07 4.535 2.668 9.602 4.801h-9.602l-.398-.199-.403-.2a30.645 30.645 0 00-1.597-2.198l-.801-1-.8 1-2 2.199L142 160h-2.398c-1.602.266-2.868.531-3.801.8l-1.403.4 1.403.402 3.8.796H142c.266 0 .531.133.8.403.266.265.4.668.4 1.199.8.531 1.468 1.2 2 2l.8 1.2.8-1.2 1.598-2 .403-.398.398-.403h9.602c-5.067 1.867-8.27 3.332-9.602 4.403-1.332 1.066-2 2-2 2.796v.403c3.2 2.933 5.2 4.668 6 5.199.801.531 1.332.8 1.602.8.265 0 .465-.132.597-.402l.204-.398c0-1.867 1.398-4 4.199-6.398 2.8-2.403 5-4.133 6.597-5.204l8.403 8.403a117.943 117.943 0 00-3.2 7c-1.07 2.531-1.734 3.8-2 3.8L181.2 179.2l9.602 9.602 10-10.403 6.398 3.204 3.2 1.597-3.598-10.398 8.398-8.403a651.652 651.652 0 006.602 5.403c2.8 2.265 4.199 4.332 4.199 6.199v.602l.398.199c.536 0 1.07-.2 1.602-.602.531-.398 2.668-2.199 6.398-5.398v-.403c0-.53-.664-1.332-2-2.398-1.332-1.066-4.53-2.668-9.597-4.8h9.597l.204.402.199.398c.8.531 1.465 1.2 2 2l.8 1.2.797-1.2 1.602-2c.266-.531.469-.8.602-.8.132 0 .332-.266.597-.802h2.8c1.602-.265 2.867-.53 3.8-.796l1.4-.403-1-1zm0 0"/></svg>
